X:161
T:Croughly
R:Strathspey
C:William Marshall
B:The Athole Collection
M:C
L:1/8
K:F
c|A<(d d)>e f2 d>f|e>d c<g a/g/f/e/ c>e|A<(d d)>e f2 d>f|e>c a/g/f/e/ d2 d:|
E|~F>GA>B c<FA<F|~E>FG>c G/F/E/D/ C>E|~E>GA>B c<FA<g|
f>d f/e/d/^c/ d2 D<E|~F>GA>B c<FA<F|E>FG>c G/F/E/D/ C>E|
F<AGd f/e/d/^c/ d2d||
